assets/Soccer ball/Flat/soccer_ball_flat.svg

<svg width="32" height="32" viewBox="0 0 32 32" fill="none" xmlns="http://www.w3.org/2000/svg">
<circle cx="15.9998" cy="16.0001" r="13.5272" fill="#F4F4F4"/>
<path d="M10.7426 5.3942C10.7036 5.12083 10.4503 4.93088 10.177 4.96993L9.68198 5.04064C9.5507 5.0594 9.43225 5.12953 9.35269 5.23562C9.27312 5.3417 9.23896 5.47505 9.25771 5.60633L9.75771 9.10633C9.79676 9.3797 10.05 9.56965 10.3234 9.53059L10.8184 9.45988C10.9496 9.44113 11.0681 9.37099 11.1477 9.26491C11.2272 9.15882 11.2614 9.02547 11.2426 8.8942L10.7426 5.3942Z" fill="#BEBEBE"/>
<path d="M19.8356 7.05305C19.7121 6.80606 19.4118 6.70595 19.1648 6.82944L14.1648 9.32944C13.9178 9.45294 13.8177 9.75327 13.9412 10.0003L14.1648 10.4475C14.2241 10.5661 14.3281 10.6563 14.4539 10.6982C14.5797 10.7401 14.717 10.7304 14.8356 10.6711L19.8356 8.17108C19.9542 8.11178 20.0444 8.00779 20.0863 7.88198C20.1283 7.75618 20.1185 7.61887 20.0592 7.50026L19.8356 7.05305Z" fill="#BEBEBE"/>
<path d="M24.2481 9.944C24.2381 9.81176 24.176 9.6889 24.0755 9.60243C23.975 9.51596 23.8442 9.47297 23.712 9.48292L23.2134 9.52043C22.938 9.54114 22.7316 9.78117 22.7523 10.0565L23.2523 16.7025C23.2622 16.8348 23.3243 16.9576 23.4248 17.0441C23.5254 17.1306 23.6562 17.1736 23.7884 17.1636L24.287 17.1261C24.5623 17.1054 24.7688 16.8654 24.7481 16.59L24.2481 9.944Z" fill="#BEBEBE"/>
<path d="M9.33558 11.553C9.21209 11.3061 8.91175 11.2059 8.66476 11.3294L2.84197 14.2408C2.68856 14.3175 2.58517 14.4675 2.56807 14.6382C2.555 14.7686 2.54379 14.8995 2.53446 15.0309C2.52811 15.1203 2.54591 15.2098 2.58599 15.2899L2.66476 15.4475C2.78826 15.6945 3.08859 15.7946 3.33558 15.6711L9.33558 12.6711C9.45419 12.6118 9.54438 12.5078 9.58632 12.382C9.62825 12.2562 9.6185 12.1189 9.55919 12.0003L9.33558 11.553Z" fill="#BEBEBE"/>
<path d="M14.3781 13.8524C14.1396 13.7133 13.8334 13.7939 13.6943 14.0324L13.4423 14.4643C13.3755 14.5788 13.3569 14.7152 13.3907 14.8435C13.4244 14.9717 13.5077 15.0813 13.6223 15.1481L19.6223 18.6481C19.7368 18.7149 19.8732 18.7335 20.0015 18.6997C20.1297 18.666 20.2393 18.5827 20.3061 18.4681L20.558 18.0363C20.6972 17.7977 20.6166 17.4916 20.3781 17.3524L14.3781 13.8524Z" fill="#BEBEBE"/>
<path d="M10.2926 15.4812C10.1604 15.4702 10.0293 15.5122 9.92807 15.5978C9.82684 15.6835 9.76378 15.8058 9.75276 15.938L9.25276 21.938C9.22983 22.2132 9.43433 22.4548 9.70951 22.4778L10.2078 22.5193C10.3399 22.5303 10.4711 22.4884 10.5723 22.4027C10.6735 22.3171 10.7366 22.1947 10.7476 22.0625L11.2476 16.0625C11.2705 15.7874 11.066 15.5457 10.7908 15.5228L10.2926 15.4812Z" fill="#BEBEBE"/>
<path d="M28.8356 17.5531C28.7763 17.4344 28.6723 17.3442 28.5465 17.3023C28.4207 17.2604 28.2834 17.2701 28.1648 17.3294L25.1648 18.8294C24.9178 18.9529 24.8177 19.2533 24.9412 19.5003L25.1648 19.9475C25.2241 20.0661 25.3281 20.1563 25.4539 20.1982C25.5797 20.2401 25.717 20.2304 25.8356 20.1711L28.8356 18.6711C29.0826 18.5476 29.1827 18.2473 29.0592 18.0003L28.8356 17.5531Z" fill="#BEBEBE"/>
<path d="M4.05764 18.4985C3.96893 18.4 3.8447 18.3407 3.71228 18.3337C3.57985 18.3267 3.45008 18.3727 3.35151 18.4614L3.04067 18.7411C2.90368 18.8644 2.84562 19.0531 2.8896 19.2321C2.90411 19.2911 2.919 19.35 2.93428 19.4088C2.95445 19.4863 2.99295 19.5578 3.04653 19.6173L7.4427 24.502C7.62743 24.7072 7.94358 24.7239 8.14883 24.5392L8.52048 24.2047C8.61905 24.116 8.67834 23.9917 8.68531 23.8593C8.69228 23.7269 8.64635 23.5971 8.55764 23.4985L4.05764 18.4985Z" fill="#BEBEBE"/>
<path d="M20.8494 21.5637C20.7938 21.4433 20.6927 21.3499 20.5683 21.3041C20.4438 21.2583 20.3063 21.2637 20.1859 21.3193L13.6859 24.3193C13.5655 24.3749 13.4721 24.476 13.4262 24.6004C13.3804 24.7249 13.3859 24.8624 13.4414 24.9828L13.651 25.4368C13.7667 25.6875 14.0637 25.797 14.3145 25.6812L20.8145 22.6812C21.0652 22.5655 21.1746 22.2684 21.0589 22.0177L20.8494 21.5637Z" fill="#BEBEBE"/>
<path d="M23.3141 22.4731C23.0401 22.4389 22.7902 22.6332 22.756 22.9072L22.256 26.9072C22.2395 27.0388 22.276 27.1716 22.3574 27.2762C22.4388 27.3809 22.5585 27.4489 22.6901 27.4654L22.8808 27.4892C22.9958 27.5036 23.1123 27.4776 23.2102 27.4156C23.3284 27.3408 23.4454 27.2642 23.561 27.1859C23.6803 27.1051 23.7589 26.9768 23.7768 26.8339L24.2444 23.0933C24.2608 22.9617 24.2243 22.829 24.1429 22.7243C24.0615 22.6196 23.9418 22.5516 23.8103 22.5351L23.3141 22.4731Z" fill="#BEBEBE"/>
<path d="M9.67695 25.9699C9.58318 25.8762 9.45601 25.8235 9.3234 25.8235C9.19079 25.8235 9.06361 25.8762 8.96984 25.9699L8.45909 26.4807C8.35308 26.5867 8.30023 26.7347 8.31511 26.8838C8.32998 27.033 8.411 27.1676 8.53584 27.2506C8.68337 27.3487 8.83293 27.4439 8.98446 27.5363C9.18148 27.6564 9.43507 27.626 9.59821 27.4629L10.0305 27.0306C10.2258 26.8353 10.2258 26.5187 10.0305 26.3235L9.67695 25.9699Z" fill="#BEBEBE"/>
<path d="M13.4502 26.4003C13.3441 26.3207 13.2107 26.2865 13.0795 26.3053C12.9482 26.324 12.8297 26.3942 12.7502 26.5003L12.4502 26.9003C12.2845 27.1212 12.3293 27.4346 12.5502 27.6003C13.6484 28.4239 14.9584 28.9569 16.1204 29.2846C16.3498 29.3493 16.5751 29.4065 16.7937 29.4566C16.8415 29.4675 16.8907 29.4714 16.9397 29.468C17.5466 29.4263 18.1426 29.3444 18.7251 29.225C18.9697 29.1749 19.1398 28.9519 19.1236 28.7028C19.1075 28.4536 18.9099 28.2546 18.6609 28.2365C18.1344 28.1983 17.3685 28.0781 16.5276 27.8409C15.4737 27.5437 14.3519 27.0766 13.4502 26.4003Z" fill="#BEBEBE"/>
<path d="M7.24254 6.68937L9.87212 6.03198C9.95701 6.01076 10.0387 5.97849 10.1152 5.93599L13.7745 3.90306C14.0736 3.73692 14.2583 3.43612 14.2855 3.11206C11.427 3.48866 8.86128 4.79396 6.90119 6.71497C7.01188 6.72587 7.12688 6.71829 7.24254 6.68937Z" fill="#3F5FFF"/>
<path d="M3.50463 19.599C3.17603 18.4561 3 17.2486 3 16C3 14.5732 3.22986 13.2001 3.65457 11.9157L4 14.3976V19.5L3.50463 19.599Z" fill="#3F5FFF"/>
<path d="M24.3596 25.9562C22.6275 27.412 20.5101 28.4242 18.1824 28.8176L18.5 28.5L23 26.5L24.3596 25.9562Z" fill="#3F5FFF"/>
<path d="M28.5234 12.5C28.834 13.6136 29 14.7874 29 16C29 17.6165 28.705 19.164 28.1658 20.5918C27.7362 19.963 27.3666 18.9502 28 18C28.8 16.8 28.6667 13.8333 28.5 12.5H28.5234Z" fill="#3F5FFF"/>
<path d="M22.8081 4.92313C23.2004 5.16474 23.5788 5.42661 23.942 5.70728L25.5784 8.32542C25.8252 8.72029 25.7668 9.23325 25.4375 9.56252L24.5521 10.4479C24.2276 10.7724 23.724 10.8344 23.3305 10.5983L19.4855 8.29131C19.1843 8.11059 19 7.78508 19 7.43382V5.61727C19 5.02126 19.5181 4.55757 20.1104 4.62339L22.8081 4.92313Z" fill="#3F5FFF"/>
<path d="M9.62852 9.05723L7.39246 12.4113C7.15728 12.7641 7.17012 13.2268 7.42451 13.566L9.54017 16.3869C9.81147 16.7486 10.2917 16.8833 10.7116 16.7154L14.3714 15.2515C14.751 15.0996 15 14.7319 15 14.323V10.3198C15 9.84313 14.6635 9.43272 14.1961 9.33923L10.6567 8.63135C10.2593 8.55187 9.8533 8.72006 9.62852 9.05723Z" fill="#3F5FFF"/>
<path d="M14.4109 25.1239L14.1495 26.9535C14.0683 27.5219 13.5209 27.9436 12.9489 27.8957C11.7785 27.7977 10.0844 27.5844 9 26.5C7.90081 25.4008 7.4281 24.4806 7.18838 23.7394C7.04961 23.3104 7.27982 22.8601 7.68316 22.6584L9.48094 21.7595C9.80192 21.5991 10.1843 21.6229 10.4829 21.8219L13.9756 24.1504C14.296 24.364 14.4653 24.7427 14.4109 25.1239Z" fill="#3F5FFF"/>
<path d="M19 22.1978V18.177C19 17.7681 19.249 17.4004 19.6286 17.2486L23.2711 15.7915C23.699 15.6204 24.1884 15.7638 24.4563 16.1388L26.1189 18.4665C26.3503 18.7905 26.3675 19.2208 26.1627 19.5622L23.8708 23.382C23.6494 23.7511 23.2166 23.937 22.7964 23.8437L19.7831 23.174C19.3255 23.0723 19 22.6665 19 22.1978Z" fill="#3F5FFF"/>
<path fill-rule="evenodd" clip-rule="evenodd" d="M30 16C30 23.732 23.732 30 16 30C8.26801 30 2 23.732 2 16C2 8.26801 8.26801 2 16 2C23.732 2 30 8.26801 30 16ZM16 29C23.1797 29 29 23.1797 29 16C29 8.8203 23.1797 3 16 3C8.8203 3 3 8.8203 3 16C3 23.1797 8.8203 29 16 29Z" fill="#1C5CD7"/>
</svg>

<svg xmlns="http://www.w3.org/2000/svg" width="32" height="32" fill="none"><circle cx="16" cy="16" r="13.527" fill="#F4F4F4"/><path fill="#BEBEBE" d="M10.743 5.394a.5.5 0 0 0-.566-.424l-.495.07a.5.5 0 0 0-.424.566l.5 3.5a.5.5 0 0 0 .565.425l.495-.071a.5.5 0 0 0 .425-.566l-.5-3.5ZM19.836 7.053a.5.5 0 0 0-.671-.224l-5 2.5a.5.5 0 0 0-.224.671l.224.447a.5.5 0 0 0 .67.224l5-2.5a.5.5 0 0 0 .224-.67l-.223-.448ZM24.248 9.944a.5.5 0 0 0-.536-.461l-.499.037a.5.5 0 0 0-.46.537l.5 6.646a.5.5 0 0 0 .535.46l.499-.037a.5.5 0 0 0 .461-.536l-.5-6.646ZM9.336 11.553a.5.5 0 0 0-.671-.224l-5.823 2.912a.5.5 0 0 0-.274.397c-.013.13-.024.261-.034.393a.5.5 0 0 0 .052.259l.079.158a.5.5 0 0 0 .67.223l6-3a.5.5 0 0 0 .224-.67l-.223-.448ZM14.378 13.852a.5.5 0 0 0-.684.18l-.252.432a.5.5 0 0 0 .18.684l6 3.5a.5.5 0 0 0 .684-.18l.252-.432a.5.5 0 0 0-.18-.684l-6-3.5ZM10.293 15.481a.5.5 0 0 0-.54.457l-.5 6a.5.5 0 0 0 .457.54l.498.041a.5.5 0 0 0 .54-.456l.5-6a.5.5 0 0 0-.457-.54l-.498-.042ZM28.836 17.553a.5.5 0 0 0-.671-.224l-3 1.5a.5.5 0 0 0-.224.671l.224.448a.5.5 0 0 0 .67.223l3-1.5a.5.5 0 0 0 .224-.67l-.223-.448ZM4.058 18.498a.5.5 0 0 0-.706-.037l-.311.28a.5.5 0 0 0-.151.491l.044.177a.5.5 0 0 0 .113.208l4.396 4.885a.5.5 0 0 0 .706.037l.371-.334a.5.5 0 0 0 .038-.706l-4.5-5ZM20.85 21.564a.5.5 0 0 0-.664-.245l-6.5 3a.5.5 0 0 0-.245.664l.21.454a.5.5 0 0 0 .664.244l6.5-3a.5.5 0 0 0 .244-.663l-.21-.454ZM23.314 22.473a.5.5 0 0 0-.558.434l-.5 4a.5.5 0 0 0 .434.558l.19.024a.5.5 0 0 0 .33-.073c.118-.075.235-.152.351-.23a.5.5 0 0 0 .216-.352l.467-3.74a.5.5 0 0 0-.434-.559l-.496-.062ZM9.677 25.97a.5.5 0 0 0-.707 0l-.51.51a.5.5 0 0 0 .076.77c.147.099.297.194.448.286a.5.5 0 0 0 .614-.073l.432-.432a.5.5 0 0 0 0-.707l-.353-.354ZM13.45 26.4a.5.5 0 0 0-.7.1l-.3.4a.5.5 0 0 0 .1.7c1.098.824 2.408 1.357 3.57 1.685.23.064.455.122.674.172a.5.5 0 0 0 .146.011 13.495 13.495 0 0 0 1.785-.243.5.5 0 0 0-.064-.989 11.208 11.208 0 0 1-2.133-.395c-1.054-.297-2.176-.764-3.078-1.44Z"/><path fill="#3F5FFF" d="m7.243 6.69 2.63-.658a1 1 0 0 0 .242-.096l3.66-2.033a1 1 0 0 0 .51-.79 12.96 12.96 0 0 0-7.384 3.602 1 1 0 0 0 .342-.026ZM3.505 19.599A13.007 13.007 0 0 1 3 16c0-1.427.23-2.8.655-4.084L4 14.398V19.5l-.495.099ZM24.36 25.956a12.948 12.948 0 0 1-6.178 2.862l.318-.318 4.5-2 1.36-.544ZM28.523 12.5A13.01 13.01 0 0 1 29 16a12.97 12.97 0 0 1-.834 4.592c-.43-.629-.8-1.642-.166-2.592.8-1.2.667-4.167.5-5.5h.023ZM22.808 4.923c.392.242.77.504 1.134.784l1.636 2.618a1 1 0 0 1-.14 1.238l-.886.885a1 1 0 0 1-1.221.15l-3.846-2.307A1 1 0 0 1 19 7.434V5.617a1 1 0 0 1 1.11-.994l2.698.3ZM9.629 9.057l-2.237 3.354a1 1 0 0 0 .033 1.155l2.115 2.82a1 1 0 0 0 1.172.33l3.66-1.465a1 1 0 0 0 .628-.928V10.32a1 1 0 0 0-.804-.98l-3.54-.709a1 1 0 0 0-1.027.426ZM14.41 25.124l-.26 1.83c-.082.568-.63.99-1.201.942-1.17-.098-2.865-.312-3.949-1.396-1.1-1.1-1.572-2.02-1.812-2.76-.138-.43.092-.88.495-1.082l1.798-.899a1 1 0 0 1 1.002.063l3.493 2.328a1 1 0 0 1 .435.974ZM19 22.198v-4.021a1 1 0 0 1 .629-.928l3.642-1.457a1 1 0 0 1 1.185.347l1.663 2.328a1 1 0 0 1 .044 1.095l-2.292 3.82a1 1 0 0 1-1.075.462l-3.013-.67a1 1 0 0 1-.783-.976Z"/><path fill="#1C5CD7" fill-rule="evenodd" d="M30 16c0 7.732-6.268 14-14 14S2 23.732 2 16 8.268 2 16 2s14 6.268 14 14ZM16 29c7.18 0 13-5.82 13-13S23.18 3 16 3 3 8.82 3 16s5.82 13 13 13Z" clip-rule="evenodd"/></svg>
